app/dist/common/images/ntt-data.svg

<svg height="18" viewBox="0 0 18 18" width="18" xmlns="http://www.w3.org/2000/svg"><path d="m0 0h18v18h-18z" fill="#5370aa"/><path d="m7.42 10.34.1.2c.03.04.06.08.1.06s.1-.08.1-.15v-4.45h1.28v4.45c0 1.3-.67 1.55-1.23 1.55-.25 0-.49-.05-.7-.17-.2-.12-.38-.3-.49-.5-.32-.5-1.71-3.13-2.03-3.74l-.07-.13c-.03-.04-.06-.08-.1-.06s-.1.08-.1.15v4.45h-1.28v-4.45c0-1.3.67-1.55 1.23-1.55.24 0 .49.05.7.17.2.12.37.3.49.5.2.3 1.6 2.93 2 3.67zm5.55.38c.48 0 .63-.22.63-.8v-1.83c0-.58-.15-.8-.63-.8h-1.97v3.44h1.97zm2.03-2.62v1.8c0 1.38-.45 2.1-1.88 2.1h-3.52v-6h3.46c1.34 0 1.94.53 1.94 2.1z" fill="#fff"/></svg>

<!-- by TradingView --><svg xmlns="http://www.w3.org/2000/svg" width="18" height="18" viewBox="0 0 18 18"><path fill="#5370AA" d="M0 0h18v18H0z"/><path d="m7.42 10.34.1.2c.03.04.06.08.1.06.04-.02.1-.08.1-.15V6H9v4.45C9 11.75 8.33 12 7.77 12c-.25 0-.49-.05-.7-.17-.2-.12-.38-.3-.49-.5-.32-.5-1.71-3.13-2.03-3.74l-.07-.13c-.03-.04-.06-.08-.1-.06-.04.02-.1.08-.1.15V12H3V7.55C3 6.25 3.67 6 4.23 6c.24 0 .49.05.7.17.2.12.37.3.49.5.2.3 1.6 2.93 2 3.67Zm5.55.38c.48 0 .63-.22.63-.8V8.09c0-.58-.15-.8-.63-.8H11v3.44h1.97ZM15 8.1v1.8c0 1.38-.45 2.1-1.88 2.1H9.6V6h3.46C14.4 6 15 6.53 15 8.1Z" fill="#fff"/></svg>
